web/icons/logo.svg

<svg width="32" height="32" viewBox="0 0 32 32" fill="none" xmlns="http://www.w3.org/2000/svg">
<path fill-rule="evenodd" clip-rule="evenodd" d="M4.17586 0.214475C3.9931 0.413123 3.9812 1.14945 4.01479 10.1641L4.05106 19.8992L4.31803 20.8167C4.71504 22.1816 5.59944 23.908 6.40384 24.8883C7.38598 26.0853 13.187 31.7291 13.5877 31.8777C14.0826 32.0609 18.0864 32.03 18.4347 31.8402C18.9105 31.5807 25.0484 25.6157 25.6772 24.8016C26.3919 23.8763 27.3189 22.062 27.6839 20.8741L27.9482 20.0139L27.9849 10.2214C28.019 1.15289 28.0071 0.413123 27.8243 0.214475C27.647 0.0217915 27.4351 0 25.7414 0C24.3229 0 23.7209 0.0451888 23.311 0.182591C22.5665 0.432047 21.694 1.23031 21.3518 1.97512L21.0736 2.58058L21.0152 10.7238C20.9573 18.8178 20.9554 18.8707 20.6967 19.4977C20.3629 20.307 19.9267 20.8138 17.9054 22.7403C16.5734 24.0098 16.1893 24.315 15.9227 24.3153C15.6494 24.3156 15.2674 23.9919 13.7236 22.4515C11.7317 20.4639 11.3299 19.8899 11.1034 18.708C11.0308 18.3288 10.9851 15.129 10.9851 10.4257C10.9851 3.03614 10.9767 2.7392 10.7512 2.1467C10.4428 1.33617 9.62632 0.533206 8.8021 0.229959C8.2705 0.0342932 7.89309 0 6.2752 0C4.5654 0 4.35337 0.0216768 4.17586 0.214475ZM14.8201 0.158391C13.7927 0.519443 13.2069 1.06595 12.7089 2.12812L12.4429 2.69528V10.5541V18.413L12.815 19.1562C13.3165 20.1579 15.4381 22.2504 15.9523 22.2504C16.2271 22.2504 16.5468 21.9941 17.7075 20.8435C18.9784 19.5838 19.1467 19.3694 19.3168 18.7939C19.4856 18.2226 19.5031 17.2795 19.4737 10.3086L19.4407 2.46589L19.0948 1.85171C18.6619 1.08316 17.9528 0.461064 17.212 0.199909C16.5471 -0.0344078 15.4242 -0.0540202 14.8201 0.158391Z" fill="black"/>
</svg>

<svg width="32" height="32" fill="none" xmlns="http://www.w3.org/2000/svg"><path fill-rule="evenodd" clip-rule="evenodd" d="M4.176.214c-.183.2-.195.935-.161 9.95L4.05 19.9l.267.918c.397 1.365 1.281 3.091 2.086 4.071.982 1.197 6.783 6.841 7.184 6.99.495.183 4.498.152 4.847-.038.476-.26 6.613-6.224 7.242-7.038.715-.926 1.642-2.74 2.007-3.928l.264-.86.037-9.793c.034-9.068.022-9.808-.16-10.007C27.646.022 27.434 0 25.74 0c-1.418 0-2.02.045-2.43.183-.744.249-1.617 1.047-1.96 1.792l-.277.606-.059 8.143c-.058 8.094-.06 8.147-.318 8.774-.334.809-.77 1.316-2.792 3.242-1.332 1.27-1.716 1.575-1.982 1.575-.274 0-.656-.323-2.2-1.864-1.991-1.987-2.393-2.561-2.62-3.743-.072-.38-.118-3.579-.118-8.282 0-7.39-.008-7.687-.234-8.28C10.443 1.337 9.626.534 8.802.23 8.271.034 7.893 0 6.275 0c-1.71 0-1.922.022-2.1.214ZM14.82.158c-1.027.361-1.613.908-2.111 1.97l-.266.567v15.718l.372.743c.502 1.002 2.623 3.094 3.137 3.094.275 0 .595-.256 1.755-1.407 1.271-1.26 1.44-1.474 1.61-2.05.169-.57.186-1.514.157-8.484l-.033-7.843-.346-.614C18.662 1.083 17.953.462 17.212.2c-.665-.234-1.788-.254-2.392-.042Z" fill="#000"/></svg>
